X:10
T:Cold Frosty Morning
G:Key: A modal
M:C|
Z:abc-transcription Josh Larios <hades@elsewhere.org>, 2017.02.17
Z:abc-copyright This transcription is licensed under a Creative Commons Attribution-ShareAlike 4.0 International License.
K:A Dor
[P:A]y0|: "Am"a4 a4 | ab ag ed cd | "G"ed ef ga gf | ed cd e4 | 
| "Am"A4 c3c | dc d2 e2 ed | cB Ac "G"BA G2 | "Am"A3B A4 :|
[P:B]y|: "Am"ED EG A3A | Bc d2 e4 | "G"G2 BA G2 D2 | GA Bc d4 | 
| "Am"ED EG A3A | Bc d2 e2 ed | cB Ac "G"BA G2 | "Am"A3B A4 :|

